X:66
T:Cranford's Rant
R:reel
C:Paul S. Cranford
O:Cape Breton Island
S:http://www.cranfordpub.com
D:currently unrecorded
B:currently unpublished in book form
Z:psc, (re-formatted,updated 9/17/04)
N:
H:                                                        copyrights Cranford Publications, SOCAN
L:1/8
Q:333
M:C|
K:EAeo
E2 BA BdAd|FdAd FDAF|E2 BA BdAa|1gefd e2 eF:|2gefd e2 e:|
||f|e2 Be gBbg|adaf gefd|e2 Be gbea|gefd e/e/e ef|
e2 Be gBbg|adaf gefd|e2 BA BdAa|gefd e2 eF|]
